dist/svgs/dingding.svg

<svg xmlns="http://www.w3.org/2000/svg" viewBox="0 0 512 512"><path d="M456 192q0 3-2 7t-4 9v1q-7 14-17.5 34T411 280q-12 21-26 42l-13 24h65L312 513l28-114h-52l18-75q-20 4-52 15-9 4-20 2-10-2-24.5-8.5T175 308q-10-8-15-16-5-7-6.5-13.5t6.5-9.5q7-2 27.5-5t40.5-6q14-2 24-3t18-2q9-1 15-2h-58q-23 0-45-.5t-31-2.5q-10-1-20.5-9.5T111 218t-16-26.5T85 163q-3-5-1-9 1-3 6-4.5t18 2.5 41.5 10.5T208 175q34 8 75 16-52-16-93-30-18-6-35-12t-31.5-11.5-24-9.5-11.5-7q-5-5-11-18T66 73.5t-8.5-34T55 8q0-2 2-4 2-4 9-3 39 17 79 35 34 15 74 31.5T294 97q34 13 65.5 23t54 20.5 34.5 23 8 28.5z"/></svg>

<?xml version="1.0" encoding="UTF-8" standalone="no"?><svg   xmlns:svg="http://www.w3.org/2000/svg"   xmlns="http://www.w3.org/2000/svg"   version="1.1"   width="512"   height="512"   viewBox="0 0 512 512">  <path     d="M456 192Q456 195 454 199T450 208V209Q443 223 432.5 243T411 280Q399 301 385 322L372 346H437L312 513L340 399H288L306 324Q286 328 254 339Q245 343 234 341Q224 339 209.5 332.5T175 308Q165 300 160 292Q155 285 153.5 278.5T160 269Q167 267 187.5 264T228 258Q242 256 252 255T270 253Q279 252 285 251H227Q204 251 182 250.5T151 248Q141 247 130.5 238.5T111 218T95 191.5T85 163Q82 158 84 154Q85 151 90 149.5T108 152T149.5 162.5T208 175Q242 183 283 191Q231 175 190 161Q172 155 155 149T123.5 137.5T99.5 128T88 121Q83 116 77 103T66 73.5T57.5 39.5T55 8Q55 6 57 4Q59 0 66 1Q105 18 145 36Q179 51 219 67.5T294 97Q328 110 359.5 120T413.5 140.5T448 163.5T456 192z"     id="dingding" /></svg>
